!! 00000] TT[WS
!!!OTL: Yengyeng guohe
!!!ARE: Asia, China, Shanxi Linxian
!! Ethnic Group: Han
!! WI, 183 (1)
!!!SCT: J0216
!!!YEM: Copyright 1995, estate of Helmut Schaffrath.
**kern
*ICvox
*Ivox
!! Mixed meters:  2/4; 3/4
*M3/4
*k[b-]
*F:
{8cc
16dd
16cc
8b-
[8cc
=1
8cc]
16dd
16ff
8dd
16dd
16cc
4g}
=2
*M2/4
{8cc
16dd
16cc
8b-
[8cc
=3
*M3/4
8cc]
16dd
16ff
8dd
16dd
16cc
4g}
=4
*M2/4
{8cc
16cc
16cc
8ff
16ff
16dd
=5
*M3/4
16cc
16cc
16cc
16ff
2cc}
=6
*M2/4
{16g
16a
16g
16f
16ee
16r
16f
16r
=7
16f
16g
4cc
16b-
16a
=8
16a
16g
4.c}
==
!!!AGN: Xiaodiao. Aisu
!!!ONB: ESAC (Essen Associative Code) Database: CHINA
!!!AMT: irregular
!!!AIN: vox
!!!EED: Helmut Schaffrath
!!!EEV: 1.0
*-
!!!ONB: Tied note syntax fixed by Craig Sapp, 2004/05/03/
